png/textile.svg

<svg xmlns="http://www.w3.org/2000/svg" viewBox="0 0 16 16"><path fill="#d13873" fill-rule="evenodd" d="M15 1H1v14h14zM3 3v4h2V5h2v6H5v2h6v-2H9V5h2v2h2V3z"/></svg>

<?xml version="1.0" encoding="utf-8"?><!-- Uploaded to: SVG Repo, www.svgrepo.com, Generator: SVG Repo Mixer Tools -->
<svg width="800px" height="800px" viewBox="0 0 16 16" fill="none" xmlns="http://www.w3.org/2000/svg">
<path fill-rule="evenodd" clip-rule="evenodd" d="M15 1H1V15H15V1ZM3 3V7H5V5H7V11H5V13H11V11H9V5H11V7H13V3H3Z" fill="#000000"/>
</svg>
